resources/icons/csv.svg

<svg width="20" height="20" viewBox="0 0 20 20" xmlns="http://www.w3.org/2000/svg">
<path d="M3.50476 18.8568H2.2381C1.55714 18.8568 1 18.2997 1 17.6188V2.95685C1 2.27589 1.55714 1.71875 2.17619 1.71875H10.781C11.1524 1.71875 11.4 1.84256 11.6476 2.09018L16.3524 6.79494C16.6 7.04256 16.7238 7.35208 16.7238 7.66161V8.37589" stroke="currentColor" stroke-width="2" stroke-linecap="round" stroke-linejoin="round" fill="none"/>
<path d="M8 13C6.89543 13 6 14.0745 6 15.4V16.6C6 17.9255 6.89543 19 8 19" stroke="currentColor" stroke-width="2" stroke-linecap="round" stroke-linejoin="round" fill="none"/>
<path d="M14 13H12.5C11.6716 13 11 13.5373 11 14.2C11 16 14 16 14 17.8C14 18.4627 13.3284 19 12.5 19H11" stroke="currentColor" stroke-width="2" stroke-linecap="round" stroke-linejoin="round" fill="none"/>
<path d="M16 13V15.036C16.0001 16.4468 16.522 17.826 17.5 19C18.478 17.826 18.9999 16.4468 19 15.036V13" stroke="currentColor" stroke-width="2" stroke-linecap="round" stroke-linejoin="round" fill="none"/>
</svg>

<svg width="20" height="20" xmlns="http://www.w3.org/2000/svg"><path d="M3.505 18.857H2.238A1.242 1.242 0 0 1 1 17.619V2.957c0-.681.557-1.238 1.176-1.238h8.605c.371 0 .619.124.867.371l4.704 4.705c.248.248.372.557.372.867v.714" stroke="currentColor" stroke-width="2" stroke-linecap="round" stroke-linejoin="round" fill="none"/><path d="M8 13c-1.105 0-2 1.075-2 2.4v1.2c0 1.325.895 2.4 2 2.4M14 13h-1.5c-.828 0-1.5.537-1.5 1.2 0 1.8 3 1.8 3 3.6 0 .663-.672 1.2-1.5 1.2H11M16 13v2.036c0 1.41.522 2.79 1.5 3.964.978-1.174 1.5-2.553 1.5-3.964V13" stroke="currentColor" stroke-width="2" stroke-linecap="round" stroke-linejoin="round" fill="none"/></svg>
